packages/match-logos/mono/svg/iadvize.svg

<svg fill="none" height="44" viewBox="0 0 102 44" width="102" xmlns="http://www.w3.org/2000/svg"><g fill="#1f304c"><path d="m74.25 15.73c.77.33 1.54.11 2.31.22.55 0 1.21-.11 1.54-.77l.44-2.42c.11-.55-.66-.77-1.1-.77-.77 0-1.65-.11-2.31.11-.33.11-.66.33-.66.77-.11.77-.33 1.43-.33 2.2-.33.33-.11.55.11.66zm-1.1 3.19c.11-.22 0-.44-.22-.55-.55-.33-1.32-.11-1.98-.22-.55 0-1.21 0-1.65.55-.77 1.65-1.65 3.3-2.42 4.95-.55 1.1-.99 2.31-1.43 3.41-.11-1.21-.11-2.31-.22-3.52-.22-1.65-.44-3.19-.66-4.73-.11-.44-.55-.55-.88-.55h-1.98c-.44 0-.88.11-1.21.44-.11.33 0 .55 0 .88.66 4.18 1.32 8.36 2.09 12.54.33.55.99.44 1.54.55.77-.11 1.65.11 2.31-.55 2.09-4.07 4.18-8.14 6.38-12.1.11-.55.22-.77.33-1.1zm-29.15-4.29c-.11-.33-.11-.66-.22-.99-.33-.44-.99-.33-1.54-.44-.77 0-1.65-.11-2.53.22-.55.11-.55.77-.77 1.21-.33.99-.77 1.76-.99 2.75-.11-.99-.22-2.09-.55-3.19-.77-2.75-1.98-5.17-3.85-7.37-.44-.55-.88-.99-1.32-1.43-3.19-3.19-7.59-5.17-12.1-5.39h-2.09c-4.73.33-9.24 2.31-12.43 5.5-3.3 3.3-5.39 7.81-5.61 12.43v2.09c.22 4.51 2.2 9.02 5.39 12.32 2.97 2.97 6.93 4.95 11.11 5.5.44 1.21 1.21 2.31 2.31 3.19 1.65 1.43 3.74 2.31 5.94 2.97h-.22.22-.22.33c-.99-1.1-1.87-2.31-2.2-3.74-.11-.44-.22-.88-.22-1.32s.11-.88.33-1.32c.22-.11.55-.11.77-.22 3.41-.77 6.6-2.53 9.02-5.06.44-.44.77-.88 1.21-1.21.11-.11.11-.22.33-.33.55-.77 1.43-1.43 1.98-2.31h6.27c.22 1.21.33 2.31.55 3.41.33.44.99.33 1.54.33.77-.11 1.43.11 2.2-.22.33-.11.33-.66.33-.99-1.1-5.39-2.09-10.89-2.97-16.39zm-39.27-1.43c1.21-3.08 3.63-5.72 6.49-7.48 1.87-1.21 4.07-1.87 6.38-2.09 3.85-.33 7.7.66 11 2.75 2.97 1.87 5.5 4.73 6.82 8.14.44 1.32.77 2.75.77 4.07s-.22 2.75-.66 4.07c-1.1 3.52-3.52 6.49-6.49 8.58-2.75 1.98-6.16 3.19-9.46 3.3-3.08.11-6.16-.77-8.8-2.42-3.3-2.2-5.83-5.72-6.71-9.46-.33-1.21-.44-2.31-.44-3.63-.11-1.98.22-4.07 1.1-5.83zm32.89 11.77c.99-2.2 2.31-4.29 3.19-6.6.11 2.2.55 4.4.77 6.6z"/><path d="m19.47 9.34998c.11 1.43002 1.43 2.53002 2.75 2.42002 1.32 0 2.53-1.21 2.64-2.53002v-.22c-.11-1.54-1.76-2.75-3.19-2.42-1.1.22-2.09 1.32-2.09 2.42-.11.22-.11.22-.11.33zm-3.63 21.89002c.99.44 2.09.33 2.97-.11.77-.33 1.43-.77 1.98-1.43.77-.88 1.54-1.87 2.2-2.97-.22-.11-.44-.33-.66-.33-.55.77-.99 1.54-1.65 2.2-.33.33-.66.55-.99.55-.33-.11-.33-.33-.33-.66 0-.11 0-.33.11-.44l4.29-13.2h-1.32c-1.98.33-3.96.55-6.05.88-.11.22-.11.44-.11.77.55 0 1.21 0 1.65.44.22.22.33.44.33.77 0 .22-.11.55-.11.77-.99 3.19-2.09 6.27-3.08 9.46-.11.55-.33.99-.33 1.54-.22.55.44 1.43 1.1 1.76zm84.48-3.3c-.11-.22-.33-.55-.66-.44-1.87.66-3.74 1.76-5.83 1.76-.77 0-1.65-.22-2.09-.88-.44-.55-.33-1.21-.33-1.87h7.04c.55-.22.99-.66 1.32-1.1.33-.33.33-.77.33-1.21.11-1.43.11-2.75-.55-4.07-.44-.99-1.43-1.76-2.53-1.98-1.65-.33-3.41-.11-4.95.55-1.87.77-3.3 2.53-3.85 4.51-.55 1.87-.99 4.07-.33 6.16h-6.49c2.53-2.75 5.06-5.61 7.59-8.36.33-.66.22-1.43 0-2.09-.11-.11-.11-.44-.33-.44h-9.46c-.55-.11-.88.33-.99.77-.11.55-.33 1.1-.33 1.65 0 .33.22.66.55.66h5.06c-2.53 2.31-4.95 4.62-7.48 7.04.55-2.97 1.1-6.05 1.65-9.13.11-.33.11-.77-.22-.99-.66-.33-1.43-.11-2.2-.22-.55 0-1.43.11-1.54.77-.77 4.07-1.43 8.14-2.09 12.21 0 .22-.11.44 0 .77.22.33.55.44.99.55h19.8c2.2.22 4.51-.33 6.38-1.21.77-.33 1.54-.77 2.2-1.32-.22-.77-.44-1.54-.66-2.09zm-6.6-6.71c.66-.33 1.65-.33 2.09.33.55.55.44 1.43.33 2.2h-4.29c.22-.99.88-2.09 1.87-2.53zm-32.67-9.02c-.44-.22-.99-.11-1.43-.11-.55 0-1.1-.11-1.65.11-.33.11-.55.33-.55.77-.33 1.98-.77 3.96-.99 5.94-1.21-.99-2.86-.99-4.29-.55-1.87.44-3.19 1.87-4.07 3.52s-1.32 3.63-1.43 5.5c-.11 1.43.22 2.97 1.21 4.07.77.99 1.98 1.32 3.19 1.21 1.43-.11 2.75-.77 3.63-1.98.11.55-.11 1.21.33 1.65.55.22 1.21.11 1.87 0 .55-.11 1.21-.11 1.65-.66.11-.33.11-.66.11-.99 0-1.43.33-2.86.55-4.29.77-4.51 1.65-9.02 2.31-13.42 0-.33-.22-.66-.44-.77zm-6.38 15.51c-.55.77-1.32 1.43-2.31 1.65-.66.11-1.32-.33-1.54-.88-.33-.99-.22-2.2 0-3.19.22-1.21.66-2.64 1.76-3.52.99-.66 2.31-.55 3.19.11-.33 1.76-.66 3.74-1.1 5.83z"/></g></svg>

<svg width="102" height="44" viewBox="0 0 102 44" fill="none" xmlns="http://www.w3.org/2000/svg">
<path d="M74.25 15.73C75.02 16.06 75.79 15.84 76.56 15.95C77.11 15.95 77.77 15.84 78.1 15.18L78.54 12.76C78.65 12.21 77.88 11.99 77.44 11.99C76.67 11.99 75.79 11.88 75.13 12.1C74.8 12.21 74.47 12.43 74.47 12.87C74.36 13.64 74.14 14.3 74.14 15.07C73.81 15.4 74.03 15.62 74.25 15.73ZM73.15 18.92C73.26 18.7 73.15 18.48 72.93 18.37C72.38 18.04 71.61 18.26 70.95 18.15C70.4 18.15 69.74 18.15 69.3 18.7C68.53 20.35 67.65 22 66.88 23.65C66.33 24.75 65.89 25.96 65.45 27.06C65.34 25.85 65.34 24.75 65.23 23.54C65.01 21.89 64.79 20.35 64.57 18.81C64.46 18.37 64.02 18.26 63.69 18.26H61.71C61.27 18.26 60.83 18.37 60.5 18.7C60.39 19.03 60.5 19.25 60.5 19.58C61.16 23.76 61.82 27.94 62.59 32.12C62.92 32.67 63.58 32.56 64.13 32.67C64.9 32.56 65.78 32.78 66.44 32.12C68.53 28.05 70.62 23.98 72.82 20.02C72.93 19.47 73.04 19.25 73.15 18.92ZM44 14.63C43.89 14.3 43.89 13.97 43.78 13.64C43.45 13.2 42.79 13.31 42.24 13.2C41.47 13.2 40.59 13.09 39.71 13.42C39.16 13.53 39.16 14.19 38.94 14.63C38.61 15.62 38.17 16.39 37.95 17.38C37.84 16.39 37.73 15.29 37.4 14.19C36.63 11.44 35.42 9.02 33.55 6.82C33.11 6.27 32.67 5.83 32.23 5.39C29.04 2.2 24.64 0.22 20.13 0H18.04C13.31 0.33 8.8 2.31 5.61 5.5C2.31 8.8 0.22 13.31 0 17.93V20.02C0.22 24.53 2.2 29.04 5.39 32.34C8.36 35.31 12.32 37.29 16.5 37.84C16.94 39.05 17.71 40.15 18.81 41.03C20.46 42.46 22.55 43.34 24.75 44H24.53H24.75H24.53H24.86C23.87 42.9 22.99 41.69 22.66 40.26C22.55 39.82 22.44 39.38 22.44 38.94C22.44 38.5 22.55 38.06 22.77 37.62C22.99 37.51 23.32 37.51 23.54 37.4C26.95 36.63 30.14 34.87 32.56 32.34C33 31.9 33.33 31.46 33.77 31.13C33.88 31.02 33.88 30.91 34.1 30.8C34.65 30.03 35.53 29.37 36.08 28.49H42.35C42.57 29.7 42.68 30.8 42.9 31.9C43.23 32.34 43.89 32.23 44.44 32.23C45.21 32.12 45.87 32.34 46.64 32.01C46.97 31.9 46.97 31.35 46.97 31.02C45.87 25.63 44.88 20.13 44 14.63ZM4.73 13.2C5.94 10.12 8.36 7.48 11.22 5.72C13.09 4.51 15.29 3.85 17.6 3.63C21.45 3.3 25.3 4.29 28.6 6.38C31.57 8.25 34.1 11.11 35.42 14.52C35.86 15.84 36.19 17.27 36.19 18.59C36.19 19.91 35.97 21.34 35.53 22.66C34.43 26.18 32.01 29.15 29.04 31.24C26.29 33.22 22.88 34.43 19.58 34.54C16.5 34.65 13.42 33.77 10.78 32.12C7.48 29.92 4.95 26.4 4.07 22.66C3.74 21.45 3.63 20.35 3.63 19.03C3.52 17.05 3.85 14.96 4.73 13.2ZM37.62 24.97C38.61 22.77 39.93 20.68 40.81 18.37C40.92 20.57 41.36 22.77 41.58 24.97H37.62Z" fill="#1F304C"/>
<path d="M19.47 9.34998C19.58 10.78 20.9 11.88 22.22 11.77C23.54 11.77 24.75 10.56 24.86 9.23998V9.01998C24.75 7.47998 23.1 6.26998 21.67 6.59998C20.57 6.81998 19.58 7.91998 19.58 9.01998C19.47 9.23998 19.47 9.23998 19.47 9.34998ZM15.84 31.24C16.83 31.68 17.93 31.57 18.81 31.13C19.58 30.8 20.24 30.36 20.79 29.7C21.56 28.82 22.33 27.83 22.99 26.73C22.77 26.62 22.55 26.4 22.33 26.4C21.78 27.17 21.34 27.94 20.68 28.6C20.35 28.93 20.02 29.15 19.69 29.15C19.36 29.04 19.36 28.82 19.36 28.49C19.36 28.38 19.36 28.16 19.47 28.05L23.76 14.85H22.44C20.46 15.18 18.48 15.4 16.39 15.73C16.28 15.95 16.28 16.17 16.28 16.5C16.83 16.5 17.49 16.5 17.93 16.94C18.15 17.16 18.26 17.38 18.26 17.71C18.26 17.93 18.15 18.26 18.15 18.48C17.16 21.67 16.06 24.75 15.07 27.94C14.96 28.49 14.74 28.93 14.74 29.48C14.52 30.03 15.18 30.91 15.84 31.24ZM100.32 27.94C100.21 27.72 99.99 27.39 99.66 27.5C97.79 28.16 95.92 29.26 93.83 29.26C93.06 29.26 92.18 29.04 91.74 28.38C91.3 27.83 91.41 27.17 91.41 26.51H98.45C99 26.29 99.44 25.85 99.77 25.41C100.1 25.08 100.1 24.64 100.1 24.2C100.21 22.77 100.21 21.45 99.55 20.13C99.11 19.14 98.12 18.37 97.02 18.15C95.37 17.82 93.61 18.04 92.07 18.7C90.2 19.47 88.77 21.23 88.22 23.21C87.67 25.08 87.23 27.28 87.89 29.37H81.4C83.93 26.62 86.46 23.76 88.99 21.01C89.32 20.35 89.21 19.58 88.99 18.92C88.88 18.81 88.88 18.48 88.66 18.48H79.2C78.65 18.37 78.32 18.81 78.21 19.25C78.1 19.8 77.88 20.35 77.88 20.9C77.88 21.23 78.1 21.56 78.43 21.56H83.49C80.96 23.87 78.54 26.18 76.01 28.6C76.56 25.63 77.11 22.55 77.66 19.47C77.77 19.14 77.77 18.7 77.44 18.48C76.78 18.15 76.01 18.37 75.24 18.26C74.69 18.26 73.81 18.37 73.7 19.03C72.93 23.1 72.27 27.17 71.61 31.24C71.61 31.46 71.5 31.68 71.61 32.01C71.83 32.34 72.16 32.45 72.6 32.56H92.4C94.6 32.78 96.91 32.23 98.78 31.35C99.55 31.02 100.32 30.58 100.98 30.03C100.76 29.26 100.54 28.49 100.32 27.94ZM93.72 21.23C94.38 20.9 95.37 20.9 95.81 21.56C96.36 22.11 96.25 22.99 96.14 23.76H91.85C92.07 22.77 92.73 21.67 93.72 21.23ZM61.05 12.21C60.61 11.99 60.06 12.1 59.62 12.1C59.07 12.1 58.52 11.99 57.97 12.21C57.64 12.32 57.42 12.54 57.42 12.98C57.09 14.96 56.65 16.94 56.43 18.92C55.22 17.93 53.57 17.93 52.14 18.37C50.27 18.81 48.95 20.24 48.07 21.89C47.19 23.54 46.75 25.52 46.64 27.39C46.53 28.82 46.86 30.36 47.85 31.46C48.62 32.45 49.83 32.78 51.04 32.67C52.47 32.56 53.79 31.9 54.67 30.69C54.78 31.24 54.56 31.9 55 32.34C55.55 32.56 56.21 32.45 56.87 32.34C57.42 32.23 58.08 32.23 58.52 31.68C58.63 31.35 58.63 31.02 58.63 30.69C58.63 29.26 58.96 27.83 59.18 26.4C59.95 21.89 60.83 17.38 61.49 12.98C61.49 12.65 61.27 12.32 61.05 12.21ZM54.67 27.72C54.12 28.49 53.35 29.15 52.36 29.37C51.7 29.48 51.04 29.04 50.82 28.49C50.49 27.5 50.6 26.29 50.82 25.3C51.04 24.09 51.48 22.66 52.58 21.78C53.57 21.12 54.89 21.23 55.77 21.89C55.44 23.65 55.11 25.63 54.67 27.72Z" fill="#1F304C"/>
</svg>
